X:1
T:Title
%%score 1 2 3
L:1/8
M:4/2
K:F
V:1 treble nm="Part_1"
V:2 treble-8 nm="Part_2"
V:3 bass nm="Part_3"
V:1
 A16 | D16 | (A8 d8) | c8 A8 | F8 G8 | A16 | A16 | G8 A8 | c8 =B8 | A16 | G8 A8 | F16 | E8 F8 | %13
 D16 | C16 | z16 | F16 | C8 F8 | E8 F8 | G12 F4 | E8 D8- | D8 ^C8 | D8 F8 | G8 A8 | z4 c8 B2 A2 | %25
 B4 A8 G2 F2 | E4 F8 G4 | E8 F8- | F4 E4 D8 | C6 D2 E4 F4- | F4 E8 D2 C2 | B,8 A,8 | z8 G8- | %33
 G8 ^F8 | G8 C8- | C8 D8- | D8 C8- | C8 =B,8 | C8 E8- | E4 D2 C2 D8 | E8 C8- | C8 D8- | D8 E8- | %43
 E8 D8- | D8 ^C8 | D16 || z16 | z16 | z16 | z16 | z16 | z16 | z16 | z16 | z16 | z16 | z16 | %57
 A12 B4 | c8 c8 | d12 c2 B2 | A8 d8 | c8 A8 | c8 B8 | A12 G4 | F8 E8 | F8 G8 | A16- | A16 | z16 | %69
 z16 | z16 | z16 | z16 | z16 | z16 | C12 D4 | E4 F6 E2 D2 C2 | D8 C8 | A,4 A8 ^G4 | A4 c8 B2 A2 | %80
 B8 c8- | c4 B4 A8 | G8 A8- | A4 G4 F8- | F8 E8 | F12 E2 D2 | C8 F8 | E8 F8 | G8 A8 | B8 c8- | %90
 c4 B4 A8 | G8 F4 E4- | E4 F8 E2 D2 | C4 D8 ^C4 | D16 |] %95
V:2
[K:C] d12 c4 | _B12 A2 G2 | (F8 G8) | A8 c8 | d8 e8 | c8 z4 d4- | d2 c2 A4 c4 d4 | B8 A8 | z8 e8- | %9
 e4 d2 c2 d8 | e8 d4 c4- | c4 B2 A2 B8 | c8 _B4 A4- | A4 G2 F2 G8 | A6 B2 c2 d2 e4- | e4 d8 ^c4 | %16
 d4 A8 G2 F2 | E8 D8 | A16 | G6 F2 E4 D4 | C8 D8 | E16 | D16 | z16 | A16 | D16 | A8 B8 | c8 A8 | %28
 F8 G8 | A16- | A16 | G8 A8 | c8 B8 | A16 | G8 A8 | F16 | E8 F8 | D16 | C16 | F16 | C8 F8 | E8 F8 | %42
 G16 | G8 F8 | E8 E8 | D16 || z16 | z16 | A12 B4 | c8 c8 | d16 | A8 d8 | c8 A8 | c8 _B8 | A16 | %55
 F8 E8 | F8 G8 | A4 c6 _B2 A4- | A4 G2 F2 E8 | D8 G8 | F8 G8 | A12 F4- | F4 f8 e4 | f6 e2 c4 d4- | %64
 d2 c2 _B2 A2 G4 F2 E2 | D8 E8 | F8 z4 c4- | c2 c2 A8 G2 F2 | E8 D4 A4- | A4 G4 c8 | B4 A8 G2 F2 | %71
 E8 F8 | G4 F8 E2 D2 | C8 F8- | F4 E2 D2 E4 D4 | A16- | A16 | G8 A8 | c8 B8 | A16 | G8 A8 | F16 | %82
 E8 F8 | D16 | C16 | z16 | F16 | C8 F8 | E8 F8 | G8 A8- | A4 G4 F8 | E8 D4 G4- | G4 A8 G2 F2 | %93
 E4 D4 E8 | D16 |] %95
V:3
 D,16 | G,12 F,2 E,2 | D,8 B,,8 | A,,8 z4 F,4- | F,4 E,2 D,2 C,8 | F,6 G,2 A,4 D,4- | %6
 D,2 E,2 F,8 E,2 D,2 | E,8 F,8 | A,8 G,8 | F,16 | E,8 F,8 | D,16 | C,8 D,8 | B,,16 | A,,8 z4 A,4- | %15
 A,4 G,2 F,2 E,8 | D,16 | (A,,8 B,,8) | (C,8 D,8) | G,,4 C,8 D,4 | A,,8 B,,8 | A,,16 | A,16 | %23
 B,8 A,8 | F,8 F,,8 | G,,4 F,,4 F,4 E,2 D,2 | C,4 D,8 E,4 | A,,8 D,8- | D,4 C,4 B,,8 | %29
 A,,6 B,,2 C,4 D,4- | D,4 C,4 (A,,8 | E,8) F,8- | F,8 G,8 | D,16 | G,,8 (F,,8 | A,,8) B,,8 | %36
 C,8 F,,8 | G,,16 | A,,16 | B,,16 | A,,16 | z8 D,8 | G,,8 C,8- | C,8 D,8 | A,,16 | D,16 || %46
 A,,12 B,,4 | C,8 C,8 | D,8 A,8- | A,4 G,2 F,2 E,8 | (D,8 G,8) | F,4 D,8 C,2 B,,2 | A,,8 z4 A,4- | %53
 A,2 G,2 F,8 E,2 D,2 | C,4 D,6 E,2 F,2 G,2 | A,4 D,8 C,4 | D,4 B,,8 A,,2 G,,2 | F,,12 G,,4 | %58
 A,,16 | B,,8 G,,8 | D,8 B,,8 | A,,8 z4 A,4- | A,4 G,2 F,2 G,8 | F,8 z4 B,,4- | B,,8 C,8 | %65
 B,,6 A,,2 G,,4 C,4 | F,,16- | F,,16 | C,8 D,8 | F,8 E,8 | D,16 | C,8 D,8 | B,,16 | A,,8 B,,8 | %74
 G,,16 | F,,4 F,8 E,2 D,2 | C,4 D,6 C,2 B,,2 A,,2 | B,,8 A,,8 | z8 E,8 | F,16 | E,8 A,,8- | %81
 A,,4 G,,4 F,,8 | C,8 F,,8 | (F,16 | G,16) | F,8 D,8 | A,12 G,2 F,2 | G,4 F,2 E,2 D,8 | %88
 C,6 B,,2 A,,8 | G,,8 F,,8 | F,,4 G,,4 A,,4 B,,4 | C,8 z4 C,4- | C,4 F,,8 G,,4 | A,,4 B,,4 A,,8 | %94
 D,16 |] %95

